packages/client-app/static/animations/inbox-zero/airstrip/airstrip.hyperesources/planeshadow.svg

<svg xmlns="http://www.w3.org/2000/svg" preserveAspectRatio="xMidYMid" width="195.941" height="191.313" viewBox="0 0 195.941 191.313"><defs><style>.cls-1 { fill: #000; opacity: 0.1; fill-rule: evenodd; }</style></defs><path d="M172.538 62.082c-5.603 4.241-24.516-3.837-24.516-3.837l-50.68 50.574 98.599 66.899-9.739 11.826s-28.604-4.291-114.734-47.967c-3.957 3.957-45.421 50.366-54.225 51.349-23.214 2.593-17.004-8.33-14.959-18.623 1.599-8.048 15.575-22.399 20.981-28.219 11.426-12.297 23.147-23.538 25.778-26.308-43.676-86.129-40.833-108.05-40.833-108.05l11.825-9.738 57.37 90.875 51.547-52.354s-11.378-18.47-6.192-24.724c1.272 0 9.296-7.306 9.296-7.306l21.793 27.71-.736 5.511 26.869 15.712s-7.444 5.399-7.444 6.67z" class="cls-1"/></svg>

<svg xmlns="http://www.w3.org/2000/svg" xmlns:xlink="http://www.w3.org/1999/xlink" preserveAspectRatio="xMidYMid" width="195.941" height="191.313" viewBox="0 0 195.941 191.313">
  <defs>
    <style>
      .cls-1 {
        fill: #000;
        opacity: 0.1;
        fill-rule: evenodd;
      }
    </style>
  </defs>
  <path d="M172.538,62.082 C166.935,66.323 148.022,58.245 148.022,58.245 L97.342,108.819 L195.941,175.718 L186.202,187.544 C186.202,187.544 157.598,183.253 71.468,139.577 C67.511,143.534 26.047,189.943 17.243,190.926 C-5.971,193.519 0.239,182.596 2.284,172.303 C3.883,164.255 17.859,149.904 23.265,144.084 C34.691,131.787 46.412,120.546 49.043,117.776 C5.367,31.647 8.210,9.726 8.210,9.726 L20.035,-0.012 L77.405,90.863 L128.952,38.509 C128.952,38.509 117.574,20.039 122.760,13.785 C124.032,13.785 132.056,6.479 132.056,6.479 L153.849,34.189 L153.113,39.700 L179.982,55.412 C179.982,55.412 172.538,60.811 172.538,62.082 Z" class="cls-1"/>
</svg>
